<?xml version="1.0" encoding="UTF-8"?>
<map version="1.10" tiledversion="1.10.2" orientation="orthogonal" renderorder="right-down" width="32" height="24" tilewidth="16" tileheight="16" infinite="0" nextlayerid="5" nextobjectid="6">
 <tileset firstgid="1" source="tiny-dungeon.tsx"/>
 <layer id="1" name="ground" width="32" height="24">
  <data encoding="csv">
0,0,0,0,0,0,0,0,0,0,0,0,0,0,0,0,0,0,0,0,0,0,0,0,0,0,0,0,0,0,0,0,
0,0,49,49,49,49,49,49,49,0,49,49,49,49,49,49,49,49,49,49,49,49,49,49,49,49,49,49,49,49,0,0,
0,0,50,49,49,50,49,49,50,0,49,49,49,50,49,49,50,49,49,49,49,49,49,43,49,49,49,43,49,50,0,0,
0,0,50,50,49,49,50,49,49,0,49,49,49,49,49,49,49,43,49,49,49,49,50,49,49,49,50,43,50,49,0,0,
0,0,50,50,50,49,50,49,49,0,49,49,49,49,49,50,49,49,50,49,49,50,49,49,49,49,49,49,49,49,0,0,
0,0,50,49,49,50,50,50,50,0,49,49,49,49,49,49,49,49,49,49,49,49,0,49,49,49,49,49,49,49,0,0,
0,0,49,49,49,49,49,50,50,49,49,49,49,49,49,50,49,49,49,49,49,49,0,43,49,43,49,49,49,49,0,0,
0,0,49,49,49,49,49,49,43,49,50,49,49,49,49,49,49,49,49,49,49,49,49,49,49,49,49,49,49,49,0,0,
0,0,49,49,49,50,43,49,49,49,49,49,49,49,49,49,49,49,50,49,50,49,43,49,49,49,43,43,43,49,0,0,
0,0,49,49,49,49,50,50,49,50,49,49,43,49,49,49,49,49,43,49,49,49,49,43,43,43,49,49,43,49,0,0,
0,0,49,49,49,49,49,49,49,50,43,49,49,49,49,49,49,49,49,49,49,43,49,49,43,49,43,43,43,49,0,0,
0,0,49,49,49,49,49,49,49,50,49,49,49,49,49,49,49,49,50,49,50,49,49,49,49,43,49,49,49,49,0,0,
0,0,49,50,49,49,49,49,49,49,50,49,49,43,50,49,49,49,49,50,49,49,0,43,49,49,49,49,43,43,0,0,
0,0,49,49,49,49,49,49,50,50,49,49,49,43,49,49,49,49,49,49,49,50,0,43,49,43,49,43,43,49,0,0,
0,0,49,49,49,49,50,49,49,43,49,49,49,49,49,49,49,49,49,49,49,49,49,49,49,49,49,49,49,49,0,0,
0,0,49,49,49,49,43,49,49,49,49,49,49,49,50,50,49,49,50,49,49,49,50,49,49,49,49,43,49,49,0,0,
0,0,49,49,49,49,49,49,50,50,49,0,49,43,49,49,49,49,49,43,49,49,49,43,49,49,49,49,49,49,0,0,
0,0,50,49,49,50,50,49,49,49,50,0,49,49,50,50,49,49,49,49,49,50,49,49,43,49,49,49,49,49,0,0,
0,0,49,49,50,49,49,50,49,49,49,0,50,50,50,49,49,49,49,49,49,50,49,49,50,49,49,49,49,49,0,0,
0,0,49,49,49,50,50,49,49,50,50,0,49,50,50,49,49,49,50,50,49,49,49,49,49,49,49,49,49,49,0,0,
0,0,50,49,49,49,50,49,49,49,50,0,49,49,50,49,49,49,49,49,49,50,49,49,49,49,49,50,49,49,0,0,
0,0,49,50,50,49,49,49,50,50,49,0,49,49,49,49,49,49,49,50,49,49,49,43,49,49,49,49,49,49,0,0,
0,0,0,0,0,0,0,0,0,0,0,0,0,0,0,0,0,0,0,0,0,0,0,0,0,0,0,0,0,0,0,0,
0,0,0,0,0,0,0,0,0,0,0,0,0,0,0,0,0,0,0,0,0,0,0,0,0,0,0,0,0,0,0,0
  </data>
 </layer>
 <layer id="2" name="walls" width="32" height="24">
  <data encoding="csv">
1,1,1,13,1,1,13,1,13,1,13,25,1,1,25,1,1,1,1,1,1,13,1,1,1,25,1,1,1,1,1,1,
1,13,38,38,38,38,30,38,38,13,38,38,8,38,38,38,30,38,38,38,8,38,38,38,38,38,30,38,38,38,1,1,
1,41,0,0,0,0,0,0,0,41,0,0,0,0,0,0,0,0,0,0,0,0,0,0,0,0,0,0,0,0,41,13,
1,41,0,0,0,0,0,0,0,41,0,0,0,0,0,0,0,0,0,0,0,0,0,0,0,0,0,0,0,0,41,1,
13,41,0,0,0,0,0,0,0,41,0,0,0,0,0,0,0,0,0,0,0,0,0,0,0,0,0,0,0,0,41,1,
1,41,0,0,0,0,0,0,0,41,0,0,0,0,0,0,0,0,0,0,0,0,41,38,38,38,38,38,38,38,1,1,
1,41,0,0,0,0,0,0,0,40,0,0,0,0,0,0,0,0,0,0,0,0,41,0,0,0,0,0,0,0,41,1,
1,1,38,38,38,38,39,0,0,0,0,0,0,0,0,0,0,0,0,0,0,0,40,0,0,0,0,0,0,0,41,1,
1,41,0,0,0,0,0,0,0,0,0,0,0,0,0,0,0,0,0,0,0,0,0,0,0,0,0,0,0,0,41,1,
25,41,0,0,0,0,0,0,0,0,0,0,0,0,0,0,0,0,0,0,0,0,0,0,0,0,0,0,0,0,41,1,
25,41,0,0,0,0,0,0,0,0,0,0,0,0,0,0,0,0,0,0,0,0,0,0,0,0,0,0,0,0,41,13,
13,41,0,0,0,0,0,0,0,0,0,0,0,0,0,0,0,0,0,0,0,0,0,0,0,0,0,0,0,0,41,1,
13,41,0,0,0,0,0,0,0,0,0,0,0,0,0,0,0,0,0,0,0,0,41,0,0,0,0,0,0,0,41,1,
1,41,0,0,0,0,0,0,0,0,0,0,0,0,0,0,0,0,0,0,0,0,41,0,0,0,0,0,0,0,41,1,
1,41,0,0,0,0,0,0,0,0,0,0,0,0,0,0,0,0,0,0,0,0,37,38,38,38,38,38,38,38,1,25,
1,41,0,0,0,0,0,0,0,0,0,0,0,0,0,0,0,0,0,0,0,0,0,0,0,0,0,0,0,0,41,1,
25,1,38,38,38,38,39,0,0,0,0,41,0,0,0,0,0,0,0,0,0,0,0,0,0,0,0,0,0,0,41,1,
1,41,0,0,0,0,0,0,0,0,0,41,0,0,0,0,0,0,0,0,0,0,0,0,0,0,0,0,0,0,41,13,
1,41,0,0,0,0,0,0,0,0,0,41,0,0,0,0,0,0,0,0,0,0,0,0,0,0,0,0,0,0,41,1,
1,41,0,0,0,0,0,0,0,0,0,41,0,0,0,0,0,0,0,0,0,0,0,0,0,0,0,0,0,0,41,1,
1,41,0,0,0,0,0,0,0,0,0,41,0,0,0,0,0,0,0,0,0,0,0,0,0,0,0,0,0,0,41,1,
1,41,0,0,0,0,0,0,0,0,0,41,0,0,0,0,0,0,0,0,0,0,0,0,0,0,0,0,0,0,41,1,
1,1,41,41,41,41,41,41,41,41,41,1,41,41,41,41,41,41,41,41,41,41,41,41,41,41,41,41,41,41,25,1,
1,1,13,1,1,1,1,1,1,1,1,1,1,1,1,1,1,1,1,25,1,1,1,13,1,1,13,1,25,1,1,1
  </data>
 </layer>
 <layer id="3" name="props" width="32" height="24">
  <data encoding="csv">
0,0,0,0,0,0,0,0,0,0,0,0,0,0,0,0,0,0,0,0,0,0,0,0,0,0,0,0,0,0,0,0,
0,0,0,0,0,0,0,0,0,0,0,0,0,0,0,0,0,0,0,0,0,0,0,0,0,0,0,0,0,0,0,0,
0,0,0,0,0,0,0,0,0,0,0,0,0,0,0,0,0,0,0,0,0,0,0,0,0,0,0,0,0,0,0,0,
0,0,0,64,64,0,0,0,0,0,0,0,0,0,0,0,0,0,0,0,0,0,0,0,0,0,0,0,0,0,0,0,
0,0,0,0,0,0,0,0,0,0,0,0,0,0,0,0,0,0,0,0,0,0,0,0,0,0,0,0,0,0,0,0,
0,0,0,0,0,0,0,0,0,0,0,0,0,0,0,0,0,0,0,0,0,0,0,0,0,0,0,0,0,0,0,0,
0,0,0,0,0,0,0,0,0,0,0,0,0,0,0,0,0,0,0,0,0,0,0,0,0,0,0,0,0,0,0,0,
0,0,0,0,0,0,0,0,0,0,0,0,0,0,0,0,0,0,0,0,0,0,0,0,0,0,0,66,0,0,0,0,
0,0,0,0,0,0,0,0,0,0,0,0,0,0,0,0,0,0,0,0,0,0,0,0,0,0,0,0,66,0,0,0,
0,0,0,0,0,0,0,0,0,0,0,0,0,0,0,0,0,0,0,0,0,0,0,0,0,0,0,0,0,0,0,0,
0,0,0,0,0,0,0,0,0,0,0,0,0,0,0,0,0,0,0,0,0,0,0,0,0,0,0,0,0,0,0,0,
0,0,0,0,0,0,0,0,0,0,0,0,0,0,0,0,0,0,67,67,0,0,0,0,0,0,0,0,0,0,0,0,
0,0,0,0,0,0,0,0,0,0,0,0,0,0,0,0,0,0,0,0,0,0,0,0,67,0,0,0,0,0,0,0,
0,0,0,0,0,0,0,0,0,0,0,0,0,0,0,0,0,0,0,0,0,0,0,0,0,0,0,0,0,0,0,0,
0,0,0,0,0,0,0,0,0,0,0,0,0,0,0,0,0,0,0,0,0,0,0,0,0,0,0,0,0,0,0,0,
0,0,0,0,0,0,0,0,0,0,0,0,0,0,0,0,0,0,0,0,0,0,0,0,0,0,0,0,0,0,0,0,
0,0,0,0,0,0,0,0,0,0,0,0,0,0,0,0,0,0,0,0,0,0,0,0,0,0,0,0,0,0,0,0,
0,0,0,0,0,0,0,0,0,0,0,0,0,0,0,0,0,0,0,0,0,0,0,0,0,0,0,0,0,0,0,0,
0,0,0,64,0,0,0,0,0,0,0,0,0,0,0,0,0,0,0,0,0,0,0,0,0,0,0,0,0,0,0,0,
0,0,0,0,64,0,0,0,0,0,0,0,0,0,0,0,0,0,0,0,0,0,0,0,0,0,0,0,0,0,0,0,
0,0,0,0,0,0,0,0,65,0,0,0,0,0,0,0,0,0,0,0,0,0,0,0,0,0,0,0,0,0,0,0,
0,0,0,0,0,0,0,0,0,0,0,0,0,0,0,0,0,0,0,0,0,0,0,0,0,0,0,0,0,0,0,0,
0,0,0,0,0,0,0,0,0,0,0,0,0,0,0,0,0,0,0,0,0,0,0,0,0,0,0,0,0,0,0,0,
0,0,0,0,0,0,0,0,0,0,0,0,0,0,0,0,0,0,0,0,0,0,0,0,0,0,0,0,0,0,0,0
  </data>
 </layer>
 <objectgroup id="4" name="spawns" draworder="topdown">
  <properties>
   <property name="coordSpace" value="pixels"/>
   <property name="originNote" value="Point is feet; HQ sprites use origin (0.5, 1)"/>
  </properties>
  <object id="1" name="ops" type="spawn" x="88" y="96">
   <point/>
  </object>
  <object id="2" name="research" type="spawn" x="424" y="176">
   <point/>
  </object>
  <object id="3" name="build" type="spawn" x="104" y="336">
   <point/>
  </object>
  <object id="4" name="cos" type="spawn" x="264" y="208">
   <point/>
  </object>
  <object id="5" name="player" type="spawn" x="248" y="272">
   <point/>
  </object>
 </objectgroup>
</map>
